images/Atlassian-logo.svg

<svg width="540" height="67" viewBox="0 0 540 67" fill="none" xmlns="http://www.w3.org/2000/svg">
<g clip-path="url(#clip0_270_47)">
<path d="M19.6001 30.5008C19.0001 29.7008 17.8001 29.5008 17.0001 30.1008C16.8001 30.3008 16.6001 30.5008 16.4001 30.8008L0.200075 63.3008C-0.299925 64.3008 0.200076 65.4008 1.10008 65.9008C1.40008 66.0008 1.70008 66.1008 2.00008 66.1008H24.6001C25.3001 66.1008 26.0001 65.7008 26.3001 65.0008C31.2001 55.0008 28.2001 39.6008 19.7001 30.5008H19.6001Z" fill="black"/>
<path d="M31.4999 1.00036C23.2999 13.7004 22.2999 29.7004 28.9999 43.3004L39.8999 65.0004C40.1999 65.7004 40.8999 66.1004 41.5999 66.1004H64.1999C65.2999 66.1004 66.0999 65.0004 65.9999 63.9004C65.9999 63.7004 65.9999 63.5004 65.7999 63.3004L34.7999 1.00036C34.3999 0.100364 33.2999 -0.299636 32.3999 0.100364C31.9999 0.300364 31.6999 0.600364 31.4999 1.00036Z" fill="black"/>
<path d="M509 35.5992L525.4 66.0992H540V11.6992H528.4V46.7992L524 36.5992L510.8 11.6992H492.5V66.0992H504.1V24.5992L509 35.5992Z" fill="black"/>
<path d="M418.8 11.6992H406.1V66.0992H418.8V11.6992Z" fill="black"/>
<path d="M391.4 50.0003C391.4 40.5003 386.4 36.0003 372.1 32.9003C364.2 31.2003 362.3 29.4003 362.3 26.9003C362.3 24.4003 365.1 22.4003 370.3 22.4003C375.5 22.4003 382.8 24.3003 388.7 27.0003V14.6003C383.1 12.0003 376.9 10.8003 370.7 10.9003C356.6 10.9003 349.3 17.0003 349.3 27.1003C349.3 37.2003 353 41.5003 367.6 44.3003C376.3 46.1003 378.1 47.5003 378.1 50.4003C378.1 53.3003 376.3 55.0003 370.1 55.0003C362.7 54.9003 355.4 52.9003 349 49.3003V62.4003C353.4 64.6003 359.2 67.0003 370 67.0003C380.8 67.0003 391.3 60.2003 391.3 50.1003" fill="black"/>
<path d="M338.6 50.0003C338.6 40.5003 333.6 36.0003 319.3 32.9003C311.4 31.2003 309.5 29.4003 309.5 26.9003C309.5 24.4003 312.3 22.4003 317.5 22.4003C322.7 22.4003 330 24.3003 335.9 27.0003V14.6003C330.3 12.0003 324.1 10.8003 317.9 10.9003C303.8 10.9003 296.5 17.0003 296.5 27.1003C296.5 37.2003 300.2 41.5003 314.8 44.3003C323.5 46.1003 325.3 47.5003 325.3 50.4003C325.3 53.3003 323.5 55.0003 317.3 55.0003C309.9 54.9003 302.6 52.9003 296.2 49.3003V62.4003C300.6 64.6003 306.4 67.0003 317.2 67.0003C328 67.0003 338.5 60.2003 338.5 50.1003" fill="black"/>
<path d="M210.9 54.3992V11.6992H198.2V66.0992H224.2L228.3 54.3992H210.9Z" fill="black"/>
<path d="M173.5 66.0992V23.4992H188.6V11.6992H146.7V23.4992H160.8V66.0992H173.5Z" fill="black"/>
<path d="M128.2 11.6992H111.5L92.5 66.0992H107.1L109.8 56.8992C116.4 58.7992 123.5 58.7992 130.1 56.8992L132.8 66.0992H147.3L128.3 11.6992H128.2ZM119.8 47.1992C117.4 47.1992 115.1 46.8992 112.8 46.1992L119.8 22.3992L126.8 46.1992C124.5 46.8992 122.2 47.1992 119.8 47.1992Z" fill="black"/>
<path d="M269.1 11.6992H252.4L233.4 66.0992H247.9L250.6 56.8992C257.2 58.7992 264.3 58.7992 270.9 56.8992L273.6 66.0992H288.1L269.1 11.6992ZM260.8 47.1992C258.4 47.1992 256.1 46.8992 253.8 46.1992L260.8 22.3992L267.8 46.1992C265.5 46.8992 263.2 47.1992 260.8 47.1992Z" fill="black"/>
<path d="M464.4 11.6992H447.7L428.7 66.0992H443.2L445.9 56.8992C452.5 58.7992 459.6 58.7992 466.2 56.8992L468.9 66.0992H483.4L464.4 11.6992ZM456.1 47.1992C453.7 47.1992 451.4 46.8992 449.1 46.1992L456.1 22.3992L463.1 46.1992C460.8 46.8992 458.5 47.1992 456.1 47.1992Z" fill="black"/>
</g>
<defs>
<clipPath id="clip0_270_47">
<rect width="540" height="67" fill="white"/>
</clipPath>
</defs>
</svg>

<?xml version="1.0" encoding="UTF-8"?>
<svg id="svg36" xmlns="http://www.w3.org/2000/svg" xmlns:svg="http://www.w3.org/2000/svg" xmlns:sodipodi="http://sodipodi.sourceforge.net/DTD/sodipodi-0.dtd" xmlns:rdf="http://www.w3.org/1999/02/22-rdf-syntax-ns#" xmlns:inkscape="http://www.inkscape.org/namespaces/inkscape" xmlns:dc="http://purl.org/dc/elements/1.1/" xmlns:cc="http://creativecommons.org/ns#" version="1.1" viewBox="0 0 540 67">
  <defs>
    <style>
      .cls-1 {
        fill: #000;
        stroke-width: 0px;
      }
    </style>
  </defs>
  <sodipodi:namedview id="namedview38" bordercolor="#666666" borderopacity="1" fit-margin-bottom="0" fit-margin-left="0" fit-margin-right="0" fit-margin-top="0" gridtolerance="10" guidetolerance="10" inkscape:current-layer="svg36" inkscape:cx="358.15928" inkscape:cy="25.92" inkscape:pageopacity="0" inkscape:pageshadow="2" inkscape:window-height="480" inkscape:window-maximized="0" inkscape:window-width="780" inkscape:window-x="0" inkscape:window-y="0" inkscape:zoom="0.81666667" objecttolerance="10" pagecolor="#ffffff" showgrid="false"/>
  <path id="path13" class="cls-1" d="M19.6,30.5c-.6-.8-1.8-1-2.6-.4-.2.2-.4.4-.6.7L.2,63.3c-.5,1,0,2.1.9,2.6.3.1.6.2.9.2h22.6c.7,0,1.4-.4,1.7-1.1,4.9-10,1.9-25.4-6.6-34.5Z" inkscape:connector-curvature="0"/>
  <path id="path15" class="cls-1" d="M31.5,1c-8.2,12.7-9.2,28.7-2.5,42.3l10.9,21.7c.3.7,1,1.1,1.7,1.1h22.6c1.1,0,1.9-1.1,1.8-2.2,0-.2,0-.4-.2-.6L34.8,1c-.4-.9-1.5-1.3-2.4-.9-.4.2-.7.5-.9.9Z" inkscape:connector-curvature="0"/>
  <polygon id="polygon17" class="cls-1" points="509 35.6 525.4 66.1 540 66.1 540 11.7 528.4 11.7 528.4 46.8 524 36.6 510.8 11.7 492.5 11.7 492.5 66.1 504.1 66.1 504.1 24.6 509 35.6"/>
  <rect id="rect19" class="cls-1" x="406.1" y="11.7" width="12.7" height="54.4"/>
  <path id="path21" class="cls-1" d="M391.4,50c0-9.5-5-14-19.3-17.1-7.9-1.7-9.8-3.5-9.8-6s2.8-4.5,8-4.5,12.5,1.9,18.4,4.6v-12.4c-5.6-2.6-11.8-3.8-18-3.7-14.1,0-21.4,6.1-21.4,16.2s3.7,14.4,18.3,17.2c8.7,1.8,10.5,3.2,10.5,6.1s-1.8,4.6-8,4.6c-7.4-.1-14.7-2.1-21.1-5.7v13.1c4.4,2.2,10.2,4.6,21,4.6s21.3-6.8,21.3-16.9" inkscape:connector-curvature="0"/>
  <path id="path23" class="cls-1" d="M338.6,50c0-9.5-5-14-19.3-17.1-7.9-1.7-9.8-3.5-9.8-6s2.8-4.5,8-4.5,12.5,1.9,18.4,4.6v-12.4c-5.6-2.6-11.8-3.8-18-3.7-14.1,0-21.4,6.1-21.4,16.2s3.7,14.4,18.3,17.2c8.7,1.8,10.5,3.2,10.5,6.1s-1.8,4.6-8,4.6c-7.4-.1-14.7-2.1-21.1-5.7v13.1c4.4,2.2,10.2,4.6,21,4.6s21.3-6.8,21.3-16.9" inkscape:connector-curvature="0"/>
  <polygon id="polygon25" class="cls-1" points="210.9 54.4 210.9 11.7 198.2 11.7 198.2 66.1 224.2 66.1 228.3 54.4 210.9 54.4"/>
  <polygon id="polygon27" class="cls-1" points="173.5 66.1 173.5 23.5 188.6 23.5 188.6 11.7 146.7 11.7 146.7 23.5 160.8 23.5 160.8 66.1 173.5 66.1"/>
  <path id="path29" class="cls-1" d="M128.2,11.7h-16.7l-19,54.4h14.6l2.7-9.2c6.6,1.9,13.7,1.9,20.3,0l2.7,9.2h14.5l-19-54.4ZM119.8,47.2c-2.4,0-4.7-.3-7-1l7-23.8,7,23.8c-2.3.7-4.6,1-7,1Z" inkscape:connector-curvature="0"/>
  <path id="path31" class="cls-1" d="M269.1,11.7h-16.7l-19,54.4h14.5l2.7-9.2c6.6,1.9,13.7,1.9,20.3,0l2.7,9.2h14.5l-19-54.4ZM260.8,47.2c-2.4,0-4.7-.3-7-1l7-23.8,7,23.8c-2.3.7-4.6,1-7,1Z" inkscape:connector-curvature="0"/>
  <path id="path33" class="cls-1" d="M464.4,11.7h-16.7l-19,54.4h14.5l2.7-9.2c6.6,1.9,13.7,1.9,20.3,0l2.7,9.2h14.5l-19-54.4ZM456.1,47.2c-2.4,0-4.7-.3-7-1l7-23.8,7,23.8c-2.3.7-4.6,1-7,1Z" inkscape:connector-curvature="0"/>
</svg>
